!!!COM: Music21
!!!OTL: Valse de Vilar do Mato
!!!OMV: pezas_valses_valse-de-vilar-do-mato_valse-de-vilar-do-mato-partitura.musicxml
**kern
*part1
*staff1
*I"Bagpipes
*I'Bag
*clefG^2
*k[]
*M3/4
=1
!LO:TX:a:t=Presto
2.gg
=
2ee
4aa
=
2.gg
=
4ee
4gg
4ccc
=
4bb
4ff
4gg
=
2aa
4bb
=
2.gg
=
2.ee
=
2.gg
=
2ee
4aa
=
2.gg
=
4ee
4gg
4ccc
=
4bb
4ff
4gg
!!linebreak:original
=
4aa
4ff
4dd
=
2.ee
=
2.ee
=||
*M3/4
!LO:TX:a:t=Presto
2.gg
=
2ee
4aa
=
2.gg
=
4ee
4gg
4ccc
=
4bb
4ff
4gg
=
2aa
4bb
=
2.gg
=
2.ee
=
2.gg
=
2ee
4aa
=
2.gg
!!linebreak:original
=
4ee
4gg
4ccc
=
4bb
4ff
4gg
=
4aa
4ff
4dd
=
[2.ee
=
4ee]
8ggL
8aaJ
8ggL
8ffJ
=||
2ee
8eeL
8ddJ
=
2cc
4cc
=
4.dd
8ee
[4ff
=
4ff]
8ffL
8ggJ
8ffL
8eeJ
=
2dd
8ddL
8ccJ
=
2b
4b
!!linebreak:original
=
4.cc
8dd
[4ee
=
4ee]
8ggL
8aaJ
8ggL
8ffJ
=
2ee
8eeL
8ddJ
=
2cc
4cc
=
4.dd
8ee
[4ff
=
4ff]
4ff
4aa
=
4gg
4ee
4gg
=
4ff
4dd
4b
=
[2cc
=
4cc]
8ggL
8aaJ
8ggL
8ffJ
=||
2ee
8eeL
8ddJ
!!linebreak:original
=
2cc
4cc
=
4.dd
8ee
[4ff
=
4ff]
8ffL
8ggJ
8ffL
8eeJ
=
2dd
8ddL
8ccJ
=
2b
4b
=
4.cc
8dd
[4ee
=
4ee]
8ggL
8aaJ
8ggL
8ffJ
=
2ee
8eeL
8ddJ
=
2cc
4cc
=
4.dd
8ee
[4ff
!!linebreak:original
=
4ff]
4ff
4aa
=
4gg
4ee
4gg
=
4ff
4dd
4b
=||
[2.cc
=
2.cc]
==
*-
!!!system-decoration: s1,s2
